images/royals.svg

<svg viewBox="0 0 31 53" xmlns="http://www.w3.org/2000/svg"><g fill="#444"><path d="m28 6c.024.165 0 .329 0 .5 0 1.933-1.566 3.5-3.5 3.5s-3.5-1.567-3.5-3.5c0-.171-.024-.335 0-.5h-2c.024.165 0 .329 0 .5 0 1.933-1.566 3.5-3.5 3.5s-3.5-1.567-3.5-3.5c0-.171-.024-.335 0-.5h-2c.024.165 0 .329 0 .5 0 1.933-1.566 3.5-3.5 3.5s-3.5-1.567-3.5-3.5c0-.171-.024-.335 0-.5h-2v9h29v-9z"/><circle cx="2" cy="2" r="2"/><circle cx="11" cy="2" r="2"/><circle cx="20" cy="2" r="2"/><circle cx="29" cy="2" r="2"/><path d="m21.359 38.648c1.624-1.548 2.641-3.727 2.641-6.148s-1.017-4.6-2.641-6.148c-1.423 1.357-2.359 3.605-2.359 6.148s.936 4.791 2.359 6.148z"/><path d="m9.641 26.352c-1.624 1.548-2.641 3.727-2.641 6.148s1.017 4.6 2.641 6.148c1.423-1.357 2.359-3.605 2.359-6.148s-.936-4.791-2.359-6.148z"/><path d="m17 32.5c0-2.96 1.075-5.606 2.756-7.35-1.253-.727-2.703-1.15-4.256-1.15s-3.003.423-4.256 1.15c1.681 1.744 2.756 4.39 2.756 7.35s-1.075 5.606-2.756 7.35c1.253.727 2.703 1.15 4.256 1.15s3.003-.423 4.256-1.15c-1.681-1.744-2.756-4.39-2.756-7.35z"/><path d="m27 20v22.767l-11.5 6.755-11.5-6.755v-22.767zm3-3h-29v27.484l14.5 8.516 14.5-8.516z"/></g></svg>

<svg xmlns="http://www.w3.org/2000/svg" viewBox="0 0 31 53">
    <path fill="#444444" d="M28,6c0.024,0.165,0,0.329,0,0.5c0,1.933-1.566,3.5-3.5,3.5S21,8.433,21,6.5c0-0.171-0.024-0.335,0-0.5h-2
        c0.024,0.165,0,0.329,0,0.5c0,1.933-1.566,3.5-3.5,3.5S12,8.433,12,6.5c0-0.171-0.024-0.335,0-0.5h-2c0.024,0.165,0,0.329,0,0.5
        C10,8.433,8.434,10,6.5,10S3,8.433,3,6.5C3,6.329,2.976,6.165,3,6H1v9h29V6H28z"/>
    <circle fill="#444444" cx="2" cy="2" r="2"/>
    <circle fill="#444444" cx="11" cy="2" r="2"/>
    <circle fill="#444444" cx="20" cy="2" r="2"/>
    <circle fill="#444444" cx="29" cy="2" r="2"/>
    <path fill="#444444" d="M21.359,38.648C22.983,37.1,24,34.921,24,32.5s-1.017-4.6-2.641-6.148C19.936,27.709,19,29.957,19,32.5
        S19.936,37.291,21.359,38.648z"/>
    <path fill="#444444" d="M9.641,26.352C8.017,27.9,7,30.079,7,32.5s1.017,4.6,2.641,6.148C11.064,37.291,12,35.043,12,32.5
        S11.064,27.709,9.641,26.352z"/>
    <path fill="#444444" d="M17,32.5c0-2.96,1.075-5.606,2.756-7.35C18.503,24.423,17.053,24,15.5,24s-3.003,0.423-4.256,1.15
        C12.925,26.894,14,29.54,14,32.5s-1.075,5.606-2.756,7.35C12.497,40.577,13.947,41,15.5,41s3.003-0.423,4.256-1.15
        C18.075,38.106,17,35.46,17,32.5z"/>
    <path fill="#444444" d="M27,20v22.767l-11.5,6.755L4,42.767V20H27 M30,17H1v27.484L15.5,53L30,44.484V17L30,17z"/>
</svg>
